!!!COM: Stadler, Maximilian
!!!CDT: 1748///-1833///
!!!COA: Haydn, Joseph
!!!OTL@@IT: Gioco filarmonico
!!!OTL@EN: Philharmonic Joke
!!!OTA@@IT: o sia maniera facile per comporre un infinito numero de minuetti e trio anche senza sapere il contrapunto
!!!OTA@EN: or the Art of Composing an Infinite Number of Minutes Without the Least Knowledge of Counterpoint
!!!PDT: 1781///
!!!PPR: Artaria
!!!SML: Gesellschaft der Musikfreundes, Vienna
!!!PPR2: Luigi Marescalchi
!!!PPP2: Napoli
!!!PDT2: 1790///
**kern	**kern	**kern
*Icello	*Ivioln	*Ivioln
*>[A,A,B,B,A]	*>[A,A,B,B,A]	*>[A,A,B,B,A]
*>norep[A,B]	*>norep[A,B]	*>norep[A,B]
*>A	*>A	*>A
*k[]	*k[]	*k[]
*M3/4	*M3/4	*M3/4
*MM120	*MM120	*MM120
!!section:  I
!!measure:  A
!!diceroll: 11
=3	=3	=3
4C	4e	4cc
8E	4e	4cc
8G	.	.
4c	4e	4cc
!!section:  I
!!measure:  B
!!diceroll: 6
=74	=74	=74
2F	2e	8cc
.	.	8b
.	.	8gg
.	.	8b
4E	4e	4cc
!!section:  I
!!measure:  C
!!diceroll: 12
=10	=10	=10
4D	4d	4f
4BB	4G	8ff
.	.	8dd
4C	4G	16ff
.	.	16ee
.	.	16dd
.	.	16cc
!!section:  I
!!measure:  D
!!diceroll: 8
=53	=53	=53
2G	4r	8cc
.	.	8b
.	4f	8dd
.	.	8b
4c	4e	4cc
!!section:  I
!!measure:  E
!!diceroll: 8
=99	=99	=99
4C	12c	4ee
.	12e	.
.	12a	.
4C	12c	8dd
.	12e	.
.	.	8cc
.	12a	.
4C	12c	8b
.	12e	.
.	.	8a
.	12a	.
!!section:  I
!!measure:  F
!!diceroll: 11
=47	=47	=47
4r	4r	16b
.	.	16cc
.	.	16a
.	.	16f#
4F#	4d	8d
.	.	8cc
4G	4d	4b
!!section:  I
!!measure:  G
!!diceroll: 6
=36	=36	=36
4D	8.cc	8.ee
.	16a	16cc
4E	4g	4b
4DD	4f#	4a
!!section:  I
!!measure:  H
!!diceroll: 12
=5	=5	=5
8GG	2.g	2.g
8BB	.	.
8D	.	.
8G	.	.
4GG	.	.
*>B	*>B	*>B
!!section:  II
!!measure:  A
!!diceroll: 10
=65	=65	=65
4r	4r	16a
.	.	16b
.	.	16cc#
.	.	16b
4A	4c#	8a
.	.	4aa
4A	4e	.
.	.	8cc#
!!section:  II
!!measure:  B
!!diceroll: 11
=4	=4	=4
4F	4d	8.dd
.	.	16a
4E	4c#	8.g
.	.	16a
4D	4d	4f
!!section:  II
!!measure:  C
!!diceroll: 6
=64	=64	=64
4BB	12B	2g
.	12d	.
.	12g	.
4BB	12B	.
.	12d	.
.	12g	.
4BB	12B	16gg
.	.	16ff
.	12d	.
.	.	16ee
.	12g	.
.	.	16dd
!!section:  II
!!measure:  D
!!diceroll: 4
=132	=132	=132
4C	16cc	16cc
.	16e	16g
.	16f	16a
.	16g	16b
4r	16a	16cc
.	16b	16dd
.	16cc	16ee
.	16dd	16ff
4r	4ee	4gg
!!section:  II
!!measure:  E
!!diceroll: 9
=51	=51	=51
4F	2.c	8.a
.	.	16cc
4A	.	8.ff
.	.	16cc
4F	.	4aa
!!section:  II
!!measure:  F
!!diceroll: 7
=162	=162	=162
2GG	8f	8b
.	8dd	8ff
.	8g	8ee
.	8f	8dd
4AA	4e	16dd
.	.	16cc
.	.	16b
.	.	16cc
!!section:  II
!!measure:  G
!!diceroll: 6
=1	=1	=1
4E	4cc	8gg
.	.	8ee
4F	4a	8dd
.	.	8ff
4G	4f	8b
.	.	8dd
!!section:  II
!!measure:  H
!!diceroll: 5
=170	=170	=170
4C	2.cc	2.cc
4G	.	.
4c	.	.
*-	*-	*-
!!!END: 2004/11/01/
